X:1
T:DOWNTON ABBEY
C:Lunn
Z:All Rights Reserved
L:1/8
Q:1/4=130
M:12/8
K:C
V:1 treble nm="MusicXML Part"
%%MIDI program 0
V:1
"Am/E" A, C A, C A, C A, C A, C A, C |"Am/E" e3 e3 e3 d3 |"F" e3 A3 A3 G3 |"Am/E" A3 E3 G3 B3 | %4
"F" c3 B3 E6 |"Am/E" z3 e3 e3 d3 |"F" g3 A3 A3 G3 |"Am/E" A3 E3 G3 B3 |"F" c3 B3 E3 G3 | %9
"F" d3 c3 E3 G3 |"F" e12 |"G" e12 |"Am/E" d12 |"Cmaj7/E" B12 |] %14

